public/assets/icons/email.svg

<?xml version="1.0"?>
<svg xmlns="http://www.w3.org/2000/svg" xmlns:xlink="http://www.w3.org/1999/xlink" xmlns:svgjs="http://svgjs.com/svgjs" version="1.1" width="512" height="512" x="0" y="0" viewBox="0 0 512.022 512.022" style="enable-background:new 0 0 512 512" xml:space="preserve" class=""><g><g xmlns="http://www.w3.org/2000/svg"><path d="m158.526 176.135c.475 25.361 10.737 49.25 28.897 67.265 18.159 18.014 42.129 28.087 67.495 28.365 11.825.131 23.461-1.844 34.484-5.866 3.892-1.418 5.896-5.723 4.478-9.614s-5.723-5.898-9.614-4.478c-9.326 3.399-19.117 5.08-29.184 4.958-44.146-.483-80.733-36.78-81.561-80.971-.599-22.455 8.518-44.538 25.01-60.587 16.498-16.053 38.831-24.555 61.324-23.35 42.998 1.948 77.534 37.205 78.625 80.266.255 10.038-1.268 19.879-4.524 29.247-2.163 6.221-8.097 10.4-14.768 10.4-.001 0-.002 0-.002 0-8.645 0-15.678-7.033-15.678-15.679v-61.821c0-4.143-3.357-7.5-7.5-7.5s-7.5 3.357-7.5 7.5v5.406c-8.504-7.994-19.936-12.906-32.5-12.906-26.191 0-47.5 21.309-47.5 47.5s21.309 47.5 47.5 47.5c13.563 0 25.807-5.724 34.471-14.871 4.381 11.599 15.593 19.872 28.706 19.872h.003c13.05 0 24.679-8.229 28.936-20.475 3.853-11.079 5.652-22.704 5.353-34.554-1.29-50.895-42.115-92.566-92.877-94.866-26.598-1.438-53.039 8.615-72.528 27.581-19.486 18.96-30.254 45.108-29.546 71.678zm97.483 30.635c-17.921 0-32.5-14.579-32.5-32.5s14.579-32.5 32.5-32.5 32.5 14.579 32.5 32.5-14.579 32.5-32.5 32.5z" fill="#40e0d0" data-original="#000000" style="" class=""/><path d="m509.119 199.12-210.28-164.308c-24.322-19.003-58.375-19.104-82.809-.242l-213.094 164.51c-1.828 1.399-2.939 3.648-2.935 5.95v66c0 4.143 3.357 7.5 7.5 7.5s7.5-3.357 7.5-7.5v-53.22l188.602 105.354-188.602 145.601v-162.735c0-4.143-3.357-7.5-7.5-7.5s-7.5 3.357-7.5 7.5v178c-.066 4.026 3.471 7.57 7.5 7.5h497c4.001.054 7.584-3.477 7.5-7.5v-278.114c.18-2.574-.803-5.206-2.882-6.796zm-479.63 277.41 195.708-151.087c19.004-14.67 45.489-14.594 64.406.189l3.612 2.822c.003.002 94.023 73.466 94.03 73.472 3.266 2.55 7.977 1.973 10.528-1.292 2.55-3.265 1.972-7.978-1.292-10.528l-85.229-66.595 46.113-25.979c3.608-2.033 4.886-6.606 2.853-10.216-2.032-3.609-6.604-4.883-10.216-2.853l-51.562 29.049c-24.131-18.571-57.647-18.694-81.911-.31l-195.45-109.18 204.119-157.58c19.004-14.67 45.489-14.593 64.406.189l202.162 157.964-112.14 63.177c-3.608 2.033-4.886 6.606-2.853 10.216 2.045 3.643 6.673 4.866 10.216 2.853l110.013-61.979v249.788l-73.729-57.61c-3.264-2.549-7.977-1.973-10.528 1.292-2.55 3.265-1.972 7.978 1.292 10.528l68.685 53.669h-453.233z" fill="#40e0d0" data-original="#000000" style="" class=""/></g></g></svg>

<svg id="Layer_1" data-name="Layer 1" xmlns="http://www.w3.org/2000/svg" viewBox="0 0 512 471.019"><defs><style>.cls-1{fill:#40e0d0;}</style></defs><path class="cls-1" d="M158.519,176.127A97.556,97.556,0,0,0,289.39,265.888a7.5,7.5,0,0,0-5.136-14.092,81.91,81.91,0,0,1-29.183,4.958c-44.144-.483-80.729-36.778-81.557-80.968a82.5,82.5,0,1,1,160.428,25.575,15.6,15.6,0,0,1-14.768,10.4h0A15.7,15.7,0,0,1,303.5,196.083V134.264a7.5,7.5,0,0,0-15,0v5.406a47.5,47.5,0,1,0,1.971,67.22,30.721,30.721,0,0,0,28.7,19.871h0a30.607,30.607,0,0,0,28.935-20.474,97.329,97.329,0,0,0,5.353-34.552c-1.29-50.893-42.113-92.562-92.873-94.862a97.688,97.688,0,0,0-102.07,99.254ZM256,206.761a32.5,32.5,0,1,1,32.5-32.5A32.535,32.535,0,0,1,256,206.761Z" transform="translate(0 -20.49)"/><path class="cls-1" d="M509.1,199.111,298.826,34.811a67.461,67.461,0,0,0-82.805-.242L2.936,199.071A7.567,7.567,0,0,0,0,205.021v66c0,1.516.1,32.962.248,37.642C1.5,317,4.567,299.9,7.194,299.9s6.271,14.089,7.7,5.737c.817-4.779.107-33.115.107-34.623V217.8L203.594,323.15,15,468.745V306.017a7.5,7.5,0,1,0-15,0V484.009a7.561,7.561,0,0,0,7.5,7.5H504.479a7.58,7.58,0,0,0,7.5-7.5v-278.1a7.834,7.834,0,0,0-2.882-6.8ZM29.488,476.51l195.7-151.081a52.469,52.469,0,0,1,64.4.189l3.611,2.822,94.026,73.469c1.335,1.042,26.986,21.639,33.3,25.469,9.141,5.541-.256-5.582,1.252-7.513,1.434-1.835,12.958,2.218,5.844-5.217-5.542-5.792-29.735-23.442-31.164-24.559L311.239,323.5l46.111-25.978a7.5,7.5,0,0,0-7.363-13.068L298.427,313.5a67.442,67.442,0,0,0-81.907-.31L21.078,204.013,225.188,46.44a52.47,52.47,0,0,1,64.4.189L491.745,204.586,379.61,267.76c-1.974,1.112-24.106,11.869-29.478,16.764-4.449,4.054,7.431,2.28,8.352,3.915.9,1.6-7.881,11.322-2.349,9.658,7.073-2.128,28.849-16.139,30.837-17.268l110.009-61.976V468.63l-73.726-57.608a7.5,7.5,0,1,0-9.236,11.82L482.7,476.509H29.488Z" transform="translate(0 -20.49)"/></svg>
